packages/wallets/src/public/images/ic-password-hide.svg

<svg width="16" height="16" viewBox="0 0 16 16" fill="none" xmlns="http://www.w3.org/2000/svg">
<path d="M14.1744 2.11832C14.3852 1.93995 14.7007 1.96624 14.8791 2.17704C15.0575 2.38784 15.0312 2.70333 14.8204 2.8817L12.7721 4.61431C13.9063 5.48145 14.7987 6.64994 15.3307 8.00001C14.1774 10.9267 11.3307 13 7.9974 13C6.57493 13 5.24109 12.6224 4.08965 11.9621L1.82037 13.8817C1.60956 14.0601 1.29407 14.0338 1.1157 13.823C0.937331 13.6122 0.963621 13.2967 1.17442 13.1183L3.22188 11.3851C2.08802 10.518 1.19596 9.34975 0.664062 8.00001C1.8174 5.07334 4.66406 3.00001 7.9974 3.00001C9.42025 3.00001 10.7544 3.37778 11.9061 4.03844L14.1744 2.11832ZM11.9097 5.34449L10.5777 6.47169C10.8442 6.91964 10.9974 7.44238 10.9974 8.00001C10.9974 9.65334 9.65073 11 7.9974 11C7.26164 11 6.58662 10.7333 6.06398 10.2916L4.95847 11.2273C5.87637 11.7264 6.91105 12 7.9974 12C10.5824 12 12.8749 10.4509 13.9974 8.00001C13.5037 6.92202 12.7823 6.01849 11.9097 5.34449ZM7.9974 4.00001C5.41916 4.00001 3.11984 5.5491 1.9974 8.00001C2.49127 9.07841 3.21168 9.98222 4.08385 10.6563L5.41706 9.52833C5.15058 9.08038 4.9974 8.55764 4.9974 8.00001C4.9974 6.34668 6.34406 5.00001 7.9974 5.00001C8.73337 5.00001 9.40857 5.26686 9.93127 5.70881L11.0364 4.77433C10.1174 4.27418 9.08206 4.00001 7.9974 4.00001ZM9.79892 7.13078L6.84213 9.63247C7.16848 9.86392 7.56714 10 7.9974 10C9.1014 10 9.9974 9.10401 9.9974 8.00001C9.9974 7.68856 9.92609 7.39367 9.79892 7.13078ZM7.9974 6.00001C6.8934 6.00001 5.9974 6.89601 5.9974 8.00001C5.9974 8.31146 6.0687 8.60635 6.19587 8.86924L9.15223 6.36725C8.82597 6.13598 8.42746 6.00001 7.9974 6.00001Z" fill="#333333"/>
</svg>

<svg xmlns="http://www.w3.org/2000/svg" width="16" height="16" viewBox="0 0 16 16" fill="none"><path fill="#999" d="M14.174 2.118a.5.5 0 0 1 .646.764l-2.048 1.732A7.925 7.925 0 0 1 15.331 8c-1.154 2.927-4 5-7.334 5a7.83 7.83 0 0 1-3.907-1.038l-2.27 1.92a.5.5 0 1 1-.646-.764l2.048-1.733A7.925 7.925 0 0 1 .664 8c1.153-2.927 4-5 7.333-5a7.83 7.83 0 0 1 3.91 1.038l2.267-1.92ZM11.91 5.344l-1.332 1.128c.266.448.42.97.42 1.528 0 1.653-1.347 3-3 3-.736 0-1.411-.267-1.934-.708l-1.106.935c.918.5 1.953.773 3.04.773 2.584 0 4.877-1.55 6-4a7.047 7.047 0 0 0-2.088-2.656ZM7.997 4c-2.578 0-4.877 1.55-6 4a7.05 7.05 0 0 0 2.087 2.656l1.333-1.128A2.98 2.98 0 0 1 4.997 8c0-1.653 1.347-3 3-3 .736 0 1.412.267 1.934.709l1.105-.935A6.336 6.336 0 0 0 7.997 4ZM9.8 7.13 6.842 9.633A2 2 0 0 0 9.8 7.13ZM7.997 6a2 2 0 0 0-1.801 2.87l2.956-2.503A1.99 1.99 0 0 0 7.997 6Z"/></svg>
